recipes/mailbox.org/icon.svg

<?xml version="1.0" encoding="UTF-8"?>
<svg xmlns="http://www.w3.org/2000/svg" xmlns:xlink="http://www.w3.org/1999/xlink" width="1024px" height="1024px" version="1.1">
  <g>
    <path style="stroke:none;fill-rule:nonzero;fill:rgb(46.27451%,73.333333%,12.941176%);fill-opacity:1;" d="M 60.640625 40.511719 L 101.308594 40.511719 L 101.308594 17.460938 L 85.191406 28.441406 C 84.039062 29.21875 82.898438 28.429688 82.898438 28.429688 L 56.480469 10.261719 L 56.480469 36.351562 C 56.480469 36.351562 56.480469 40.511719 60.640625 40.511719 M 84.101562 23.191406 L 101.308594 11.398438 L 101.308594 0 L 60.640625 0 C 60.640625 0 56.480469 0 56.480469 4.160156 L 56.480469 4.269531 Z M 84.101562 23.191406"/>
  </g>
</svg>

<svg xmlns="http://www.w3.org/2000/svg" width="1024" height="1024"><path style="stroke:none;fill-rule:nonzero;fill:#76bb21;fill-opacity:1" d="M60.64 40.512h40.669V17.46L85.19 28.44c-1.152.778-2.293-.011-2.293-.011L56.48 10.262v26.09s0 4.16 4.16 4.16m23.462-17.32 17.207-11.794V0H60.64s-4.16 0-4.16 4.16v.11zm0 0"/></svg>
